X: 1
T: Knocknagree
M: 12/8
L: 1/8
R: slide
K: Dmaj
|:efe B2A F2E B2A|FEF A2F D2F A2B|efe B2A F2E B2A|1FEF A2F E3 E3:|2FEF A2F E3 E2A||
|:B2 eef ef2 aaf|aba fa2 fe2 dB2|1AB2 eef ef2 aaf|aba fa2 fe3 e3:|2efe B2A F2E B2A|FEF A2F E3 E3||
